core/assets/icons/character.panda.filled.svg

<svg width="24" height="24" viewBox="0 0 24 24" xmlns="http://www.w3.org/2000/svg"><g id="character=panda, state=filled"><g id="Layer"><g id="Group"><path id="Vector" d="M21.7093 6.3572C21.7093 4.66391 20.3364 3.29102 18.6431 3.29102C17.4456 3.29102 16.4194 3.98445 15.9147 4.98543C14.7358 4.56198 13.4312 4.31308 11.9997 4.31308C10.5682 4.31308 9.26364 4.56198 8.08469 4.98543C7.57996 3.98444 6.55378 3.29102 5.35631 3.29102C3.66302 3.29102 2.29013 4.66391 2.29013 6.3572C2.29013 7.23435 2.66311 8.02029 3.25355 8.57916C1.97216 10.3275 1.26807 12.4277 1.26807 14.5337C1.26807 19.644 6.07294 22.7101 11.9997 22.7101C17.9265 22.7101 22.7313 19.644 22.7313 14.5337C22.7313 12.4277 22.0272 10.3275 20.7458 8.57916C21.3363 8.02028 21.7093 7.23434 21.7093 6.3572ZM9.25641 15.5817C8.8377 16.7624 7.69936 17.5999 6.37438 17.5999C4.68059 17.5999 3.3082 16.227 3.3082 14.5337C3.3082 13.9044 3.53626 13.2247 3.84918 12.7301C4.53038 11.6516 5.4726 10.9265 6.56652 10.5777C6.7836 10.5083 7.1554 10.4454 7.39644 10.4454C8.34015 10.4454 9.14911 11.1032 9.36072 11.9785C9.61173 13.019 9.63269 14.5217 9.25641 15.5817ZM13.5328 17.0888C13.5328 17.9357 12.8466 18.6219 11.9997 18.6219C11.1528 18.6219 10.4666 17.9357 10.4666 17.0888V16.5778H13.5328V17.0888ZM17.625 17.5998C16.3 17.5998 15.1617 16.7624 14.743 15.5817C14.3667 14.5217 14.3877 13.019 14.6387 11.9785C14.8503 11.1032 15.6593 10.4454 16.603 10.4454C16.844 10.4454 17.2158 10.5083 17.4329 10.5777C18.5268 10.9265 19.469 11.6516 20.1502 12.7301C20.4631 13.2247 20.6912 13.9044 20.6912 14.5337C20.6912 16.227 19.3188 17.5998 17.625 17.5998Z"/><path id="Vector_2" d="M6.63402 12.4883C5.92836 12.4883 5.35645 13.0602 5.35645 13.7659V14.5324H7.9116V13.7659C7.9116 13.0602 7.33968 12.4883 6.63402 12.4883Z"/><path id="Vector_3" d="M17.3657 12.4883C16.66 12.4883 16.0881 13.0602 16.0881 13.7659V14.5324H18.6433V13.7659C18.6433 13.0602 18.0714 12.4883 17.3657 12.4883Z"/></g></g></g></svg>

<svg xmlns="http://www.w3.org/2000/svg" width="24" height="24" fill="none"><g fill="#191C22"><path d="M21.71 6.357a3.066 3.066 0 0 0-3.067-3.066 3.055 3.055 0 0 0-2.728 1.694A11.506 11.506 0 0 0 12 4.313c-1.432 0-2.736.249-3.915.672a3.056 3.056 0 0 0-2.729-1.694A3.066 3.066 0 0 0 2.29 6.357c0 .877.373 1.663.964 2.222-1.282 1.748-1.986 3.849-1.986 5.955 0 5.11 4.805 8.176 10.732 8.176s10.731-3.066 10.731-8.176c0-2.106-.704-4.207-1.985-5.955a3.05 3.05 0 0 0 .963-2.222ZM9.255 15.582A3.053 3.053 0 0 1 6.374 17.6a3.066 3.066 0 0 1-3.066-3.066c0-.63.228-1.31.541-1.804.681-1.078 1.624-1.803 2.718-2.152.217-.07.588-.133.83-.133.943 0 1.752.658 1.964 1.534.25 1.04.272 2.543-.105 3.603Zm4.277 1.507a1.533 1.533 0 1 1-3.066 0v-.511h3.066v.51Zm4.092.51a3.053 3.053 0 0 1-2.882-2.017c-.376-1.06-.355-2.563-.104-3.604a2.028 2.028 0 0 1 1.964-1.533c.241 0 .613.063.83.133 1.094.349 2.036 1.074 2.717 2.152.313.495.541 1.174.541 1.804a3.066 3.066 0 0 1-3.066 3.066Z"/><path d="M6.634 12.488c-.706 0-1.278.572-1.278 1.278v.766h2.556v-.766c0-.706-.572-1.278-1.278-1.278ZM17.366 12.488c-.706 0-1.278.572-1.278 1.278v.766h2.555v-.766c0-.706-.572-1.278-1.277-1.278Z"/></g></svg>
